X:234
M:4/4
L:1/4
K:C
c B c E | F A G2 | A A G A | G F E2 | c c B A | ^G B A2 | A3/2 G/ ^F G | B A G2 | A A c E | F A G2 | !sintro!E E G G | A A c2 !eintro!|]
